X: 368
T: A Stone's Throw
R: polka
M: 2/4
K: Dmajor
f>e dB|AF A2|B/c/d/B/ AF|E2- Eg|
ff/e/ dB|AF A>A|B/c/d ec|d2- d:|
a>g fd|e/f/g/e/ fd|eg/e/ fd|BA Ab|
aa/g/ fd|e/f/g/e/ fd|B/c/d/B/ ce|ed d:|

